symbols/web/loupe/materialsymbolssharp/loupe_wght300_48px.svg

<svg xmlns="http://www.w3.org/2000/svg" height="48" width="48"><path d="M22.85 33.6h2.3v-8.3h8.25V23h-8.25v-8.3h-2.3V23H14.6v2.3h8.25ZM24 43q-3.95 0-7.425-1.5Q13.1 40 10.55 37.45 8 34.9 6.5 31.425 5 27.95 5 24q0-3.95 1.5-7.425Q8 13.1 10.55 10.55 13.1 8 16.575 6.5 20.05 5 24 5q3.95 0 7.425 1.5Q34.9 8 37.45 10.55 40 13.1 41.5 16.575 43 20.05 43 24v19Zm0-2.25q7 0 11.875-4.875T40.75 24q0-7-4.875-11.875T24 7.25q-7 0-11.875 4.875T7.25 24q0 7 4.875 11.875T24 40.75Zm0-16.6Z"/></svg>

<svg xmlns="http://www.w3.org/2000/svg" height="48" width="48"><path d="M22.85 33.6H25.15V25.3H33.4V23H25.15V14.7H22.85V23H14.6V25.3H22.85ZM24 43Q20.05 43 16.575 41.5Q13.1 40 10.55 37.45Q8 34.9 6.5 31.425Q5 27.95 5 24Q5 20.05 6.5 16.575Q8 13.1 10.55 10.55Q13.1 8 16.575 6.5Q20.05 5 24 5Q27.95 5 31.425 6.5Q34.9 8 37.45 10.55Q40 13.1 41.5 16.575Q43 20.05 43 24V43ZM24 40.75Q31 40.75 35.875 35.875Q40.75 31 40.75 24Q40.75 17 35.875 12.125Q31 7.25 24 7.25Q17 7.25 12.125 12.125Q7.25 17 7.25 24Q7.25 31 12.125 35.875Q17 40.75 24 40.75ZM24 24.15Q24 24.15 24 24.15Q24 24.15 24 24.15Q24 24.15 24 24.15Q24 24.15 24 24.15Q24 24.15 24 24.15Q24 24.15 24 24.15Q24 24.15 24 24.15Q24 24.15 24 24.15Z"/></svg>
